proprietary/assets/icons/energie-en-chemie/biobrandstof.svg

<svg height="64" viewBox="0 0 64 64" width="64" xmlns="http://www.w3.org/2000/svg"><path d="m0 0h64v64h-64z" fill="none"/><path d="m49 4h-16.958c-1.7969 0-3.4639.9712-4.3506 2.5366l-4.8539 8.5739-2.7881-4.126c-.3092-.4576-.9308-.5779-1.3885-.2687l-8.1429 5.5026c-.4576.3092-.5779.9308-.2687 1.3885l2.0991 3.1063 4.768-2.0149c.3196-.0939.397.1027.4113.1609l-6.2059 4.2286c-.8264.558-1.3218 1.4898-1.3218 2.4869v30.4253c0 1.6569 1.3431 3 3 3h38c1.6569 0 3-1.3431 3-3 0-15.7104 0-31.3115 0-47 0-2.7568-2.2432-5-5-5zm-21.2264 38.825c-1.225 2.6938-1.5051 4.5875-1.7706 6.0692-.1766.9858-1.0698 1.2477-2.0556 1.071-.9858-.1766-1.6909-.725-1.5142-1.7108 1.2995-7.265 6.1903-11.9353 10.3826-15.3589-.057-.0908-.2125-.2416-.6057-.0718-2.454 1.0596-6.0038 2.9968-9.3705 6.141-1.6573-2.7865-1.2373-6.2689.7124-8.4932 5.508-6.2837 9.7673.6511 20.8661-7.2927.2962-.212.7264-.058.7933.3 2.1926 11.741-8.2266 23.3361-17.4378 19.3462zm20.2264-28.825h-17.6395l2.2645-4h15.375z"/></svg>

<?xml version="1.0" encoding="utf-8"?>
<!-- Generator: Adobe Illustrator 17.1.0, SVG Export Plug-In . SVG Version: 6.00 Build 0)  -->
<svg version="1.2" baseProfile="tiny" xmlns="http://www.w3.org/2000/svg" xmlns:xlink="http://www.w3.org/1999/xlink" x="0px"
	 y="0px" width="64px" height="64px" viewBox="0 0 64 64" xml:space="preserve">
<g id="Box">
	<rect fill="none" width="64" height="64"/>
</g>
<g id="Icon">
	<path d="M49,4H32.042c-1.7969,0-3.4639,0.9712-4.3506,2.5366l-4.8539,8.5739l-2.7881-4.126
		c-0.3092-0.4576-0.9308-0.5779-1.3885-0.2687l-8.1429,5.5026c-0.4576,0.3092-0.5779,0.9308-0.2687,1.3885l2.0991,3.1063
		l4.768-2.0149c0.3196-0.0939,0.397,0.1027,0.4113,0.1609l-6.2059,4.2286C10.4954,23.6458,10,24.5776,10,25.5747V56
		c0,1.6569,1.3431,3,3,3h38c1.6569,0,3-1.3431,3-3c0-15.7104,0-31.3115,0-47C54,6.2432,51.7568,4,49,4z M27.7736,42.825
		c-1.225,2.6938-1.5051,4.5875-1.7706,6.0692c-0.1766,0.9858-1.0698,1.2477-2.0556,1.071c-0.9858-0.1766-1.6909-0.725-1.5142-1.7108
		c1.2995-7.265,6.1903-11.9353,10.3826-15.3589c-0.057-0.0908-0.2125-0.2416-0.6057-0.0718
		c-2.454,1.0596-6.0038,2.9968-9.3705,6.141c-1.6573-2.7865-1.2373-6.2689,0.7124-8.4932c5.508-6.2837,9.7673,0.6511,20.8661-7.2927
		c0.2962-0.212,0.7264-0.058,0.7933,0.3C47.404,35.2198,36.9848,46.8149,27.7736,42.825z M48,14H30.3605l2.2645-4H48V14z"/>
</g>
</svg>
